modules/coreui-icons-free/icons/paint.svg

<!-- Generated by IcoMoon.io -->
<svg version="1.1" xmlns="http://www.w3.org/2000/svg" width="24" height="24" viewBox="0 0 24 24">
<title>paint</title>
<path d="M19.126 3.375h-1.126v-1.5c-0.001-0.621-0.504-1.124-1.125-1.125h-13.5c-0.621 0.001-1.124 0.504-1.125 1.125v4.875c0.001 0.621 0.504 1.124 1.125 1.125h13.5c0.621-0.001 1.124-0.504 1.125-1.125v-1.875h1.126c1.035 0 1.874 0.839 1.874 1.874 0 0.934-0.684 1.709-1.578 1.851l-0.011 0.001-8.161 1.255v3.268h-2.625v10.125h6.75v-10.125h-2.625v-1.982l6.889-1.060c1.63-0.258 2.861-1.652 2.861-3.335 0-1.863-1.511-3.374-3.374-3.374-0 0-0 0-0 0v0zM16.5 6.375h-12.75v-4.125h12.75zM13.875 21.75h-3.75v-7.125h3.75z"></path>
</svg>

<svg xmlns="http://www.w3.org/2000/svg" width="24" height="24" viewBox="0 0 24 24"><path d="M19.126 3.375H18v-1.5A1.127 1.127 0 0016.875.75h-13.5A1.127 1.127 0 002.25 1.875V6.75a1.127 1.127 0 001.125 1.125h13.5A1.127 1.127 0 0018 6.75V4.875h1.126a1.874 1.874 0 01.296 3.725l-.011.001-8.161 1.255v3.268H8.625v10.125h6.75V13.124H12.75v-1.982l6.889-1.06A3.379 3.379 0 0022.5 6.747a3.375 3.375 0 00-3.374-3.374zm-2.626 3H3.75V2.25H16.5zM13.875 21.75h-3.75v-7.125h3.75z"/></svg>
